;FLAVOR:Marlin
;TIME:1256
;Filament used: 1.69729m
;Layer height: 0.3
;MINX:117.818
;MINY:132.104
;MINZ:0.3
;MAXX:182.207
;MAXY:167.866
;MAXZ:8.1
;Generated with Cura_SteamEngine 4.13.1
M82 ;absolute extrusion mode
; XY-2 Start Code
G21
G90
M82
M107 T0
M140 S55
M104 S215.0 T0
M190 S55
M109 S215.0 T0
G28
G92 E0

G92 E0
G92 E0
G1 F3600 E-5
;LAYER_COUNT:27
;LAYER:0
M107
G0 F1800 X125.834 Y136.034 Z0.3
;TYPE:SKIRT
G1 F3600 E0
G1 F1200 X126.101 Y135.794 E0.02687
G1 X126.403 Y135.536 E0.05659
G1 X126.677 Y135.313 E0.08303
G1 X127.02 Y135.048 E0.11547
G1 X127.311 Y134.836 E0.14241
G1 X127.705 Y134.567 E0.17811
G1 X128.015 Y134.368 E0.20568
G1 X128.36 Y134.158 E0.2359
G1 X128.658 Y133.987 E0.26162
G1 X129.022 Y133.791 E0.29255
G1 X129.343 Y133.628 E0.31949
G1 X129.751 Y133.435 E0.35327
G1 X130.09 Y133.286 E0.38098
G1 X130.495 Y133.12 E0.41374
G1 X130.835 Y132.992 E0.44093
G1 X131.262 Y132.845 E0.47472
G1 X131.609 Y132.736 E0.50194
G1 X132.006 Y132.622 E0.53285
G1 X132.346 Y132.534 E0.55913
G1 X132.77 Y132.437 E0.59168
G1 X133.116 Y132.367 E0.6181
G1 X133.53 Y132.294 E0.64956
G1 X133.893 Y132.24 E0.67702
G1 X134.325 Y132.188 E0.70959
G1 X134.686 Y132.154 E0.73672
G1 X135.112 Y132.125 E0.76868
G1 X135.475 Y132.11 E0.79586
G1 X135.92 Y132.104 E0.82917
G1 X136.286 Y132.109 E0.85656
G1 X136.749 Y132.128 E0.89124
G1 X137.087 Y132.152 E0.9166
G1 X151.269 Y133.468 E1.98247
G1 X152.047 Y133.579 E2.04128
G1 X161.843 Y134.511 E2.77768
G1 X162.639 Y134.627 E2.83788
G1 X163.42 Y134.822 E2.89812
G1 X163.974 Y135.011 E2.94192
G1 X164.188 Y135.093 E2.95907
G1 X164.924 Y135.418 E3.01928
G1 X165.337 Y135.64 E3.05437
G1 X166.028 Y136.083 E3.1158
G1 X175.63 Y142.946 E3.99904
G1 X175.937 Y143.177 E4.02779
G1 X176.166 Y143.355 E4.0495
G1 X176.563 Y143.616 E4.08505
G1 X176.821 Y143.814 E4.10939
G1 X177.165 Y144.106 E4.14316
G1 X178.511 Y144.998 E4.264
G1 X179.159 Y145.476 E4.32426
G1 X179.756 Y146.015 E4.38445
G1 X180.297 Y146.611 E4.44469
G1 X180.776 Y147.258 E4.50493
G1 X181.182 Y147.935 E4.564
G1 X181.253 Y148.068 E4.57529
G1 X181.596 Y148.796 E4.63551
G1 X181.865 Y149.555 E4.69577
G1 X182.058 Y150.336 E4.75598
G1 X182.172 Y151.133 E4.81623
G1 X182.207 Y151.883 E4.87242
G1 X182.207 Y158.767 E5.38758
G1 X182.167 Y159.571 E5.44782
G1 X182.047 Y160.367 E5.50807
G1 X181.85 Y161.147 E5.56827
G1 X181.575 Y161.903 E5.62847
G1 X181.227 Y162.629 E5.68872
G1 X180.809 Y163.316 E5.7489
G1 X180.324 Y163.959 E5.80918
G1 X179.884 Y164.445 E5.85824
G1 X179.713 Y164.619 E5.87649
G1 X179.121 Y165.164 E5.93671
G1 X178.478 Y165.648 E5.99694
G1 X177.79 Y166.065 E6.05714
G1 X177.064 Y166.412 E6.11736
G1 X176.308 Y166.686 E6.17754
G1 X175.527 Y166.883 E6.23782
G1 X174.731 Y167.002 E6.29805
G1 X174.098 Y167.039 E6.3455
G1 X132.951 Y167.864 E9.42536
G1 X132.746 Y167.866 E9.44071
G1 X132.371 Y167.864 E9.46877
G1 X131.89 Y167.847 E9.50479
G1 X131.535 Y167.824 E9.53141
G1 X131.116 Y167.786 E9.5629
G1 X130.732 Y167.741 E9.59183
G1 X130.287 Y167.676 E9.62548
G1 X129.942 Y167.616 E9.65169
G1 X129.499 Y167.526 E9.68552
G1 X129.137 Y167.442 E9.71333
G1 X128.706 Y167.33 E9.74665
G1 X128.345 Y167.225 E9.77479
G1 X127.946 Y167.097 E9.80615
G1 X127.601 Y166.977 E9.83348
G1 X127.148 Y166.805 E9.86974
G1 X126.795 Y166.658 E9.89836
G1 X126.425 Y166.492 E9.92871
G1 X126.106 Y166.34 E9.95515
G1 X125.669 Y166.116 E9.9919
G1 X125.331 Y165.929 E10.02081
G1 X125 Y165.735 E10.04952
G1 X124.7 Y165.55 E10.0759
G1 X124.32 Y165.301 E10.1099
G1 X124.003 Y165.08 E10.13881
G1 X123.623 Y164.799 E10.17418
G1 X123.35 Y164.584 E10.20019
G1 X122.988 Y164.281 E10.23552
G1 X122.697 Y164.023 E10.26462
G1 X122.423 Y163.768 E10.29263
G1 X122.165 Y163.517 E10.31957
G1 X121.857 Y163.201 E10.35259
G1 X121.598 Y162.92 E10.38119
G1 X121.276 Y162.548 E10.41801
G1 X121.051 Y162.272 E10.44466
G1 X120.792 Y161.937 E10.47634
G1 X120.571 Y161.635 E10.50435
G1 X120.314 Y161.262 E10.53825
G1 X120.116 Y160.957 E10.56546
G1 X119.888 Y160.584 E10.59818
G1 X119.696 Y160.25 E10.62701
G1 X119.482 Y159.853 E10.66076
G1 X119.317 Y159.525 E10.68823
G1 X119.141 Y159.151 E10.71917
G1 X119 Y158.831 E10.74534
G1 X118.808 Y158.357 E10.78361
G1 X118.674 Y157.992 E10.8127
G1 X118.55 Y157.625 E10.84169
G1 X118.443 Y157.284 E10.86844
G1 X118.326 Y156.874 E10.90035
G1 X118.232 Y156.508 E10.92863
G1 X118.125 Y156.034 E10.96499
G1 X118.063 Y155.714 E10.98938
G1 X118.069 Y155.713 E10.98984
G1 X117.983 Y155.247 E11.0253
G1 X117.932 Y154.878 E11.05318
G1 X117.885 Y154.456 E11.08495
G1 X117.854 Y154.092 E11.11229
G1 X117.828 Y153.625 E11.14729
G1 X117.818 Y153.257 E11.17484
G1 X117.818 Y152.827 E11.20702
G1 X117.828 Y152.442 E11.23584
G1 X117.85 Y152.016 E11.26777
G1 X117.879 Y151.648 E11.29539
G1 X117.929 Y151.184 E11.33032
G1 X117.976 Y150.841 E11.35622
G1 X118.056 Y150.401 E11.38969
G1 X118.05 Y150.4 E11.39015
G1 X118.117 Y150.047 E11.41703
G1 X118.213 Y149.609 E11.45059
G1 X118.298 Y149.266 E11.47704
G1 X118.413 Y148.848 E11.50948
G1 X118.526 Y148.478 E11.53843
G1 X118.683 Y148.014 E11.57509
G1 X118.812 Y147.668 E11.60272
G1 X118.978 Y147.257 E11.63589
G1 X119.119 Y146.934 E11.66227
G1 X119.285 Y146.579 E11.6916
G1 X119.451 Y146.244 E11.71957
G1 X119.561 Y146.031 E11.73751
G1 X122.796 Y139.96 E12.25232
G1 X122.898 Y139.773 E12.26826
G1 X123.067 Y139.475 E12.29389
G1 X123.286 Y139.113 E12.32556
G1 X123.489 Y138.795 E12.35379
G1 X123.751 Y138.409 E12.3887
G1 X123.949 Y138.135 E12.414
G1 X124.176 Y137.835 E12.44215
G1 X124.406 Y137.546 E12.46979
G1 X124.7 Y137.197 E12.50394
G1 X124.932 Y136.937 E12.53002
G1 X125.218 Y136.647 E12.5605
G1 X125.212 Y136.641 E12.56114
G1 X125.469 Y136.38 E12.58855
G1 X125.839 Y136.04 E12.62615
G1 X125.834 Y136.034 E12.62674
G0 F1800 X126.235 Y136.48
G1 F1200 X126.502 Y136.24 E12.6536
G1 X126.782 Y136.001 E12.68115
G1 X127.056 Y135.778 E12.70759
G1 X127.374 Y135.533 E12.73763
G1 X127.665 Y135.321 E12.76457
G1 X128.029 Y135.072 E12.79758
G1 X128.339 Y134.873 E12.82515
G1 X128.658 Y134.679 E12.85309
G1 X128.956 Y134.508 E12.8788
G1 X129.293 Y134.326 E12.90746
G1 X129.614 Y134.163 E12.9344
G1 X129.992 Y133.984 E12.9657
G1 X130.331 Y133.835 E12.99341
G1 X130.707 Y133.682 E13.02379
G1 X131.047 Y133.554 E13.05098
G1 X131.441 Y133.418 E13.08217
G1 X131.788 Y133.309 E13.10939
G1 X132.157 Y133.203 E13.13812
G1 X132.497 Y133.115 E13.1644
G1 X132.889 Y133.025 E13.1945
G1 X133.235 Y132.955 E13.22092
G1 X133.618 Y132.888 E13.25002
G1 X133.981 Y132.834 E13.27748
G1 X134.382 Y132.785 E13.30771
G1 X134.743 Y132.751 E13.33485
G1 X135.136 Y132.724 E13.36433
G1 X135.499 Y132.709 E13.39152
G1 X135.911 Y132.704 E13.42235
G1 X136.277 Y132.709 E13.44974
G1 X136.706 Y132.727 E13.48187
G1 X137.207 Y132.764 E13.51947
G1 X151.214 Y134.065 E14.5722
G1 X151.982 Y134.177 E14.63028
G1 X161.786 Y135.109 E15.36727
G1 X162.552 Y135.222 E15.42522
G1 X163.302 Y135.413 E15.48314
G1 X163.76 Y135.572 E15.51942
G1 X163.974 Y135.654 E15.53657
G1 X165.011 Y136.145 E15.62243
G1 X165.039 Y136.161 E15.62484
G1 X165.679 Y136.571 E15.68172
G1 X175.281 Y143.434 E16.56497
G1 X175.565 Y143.648 E16.59158
G1 X175.803 Y143.831 E16.61405
G1 X176.198 Y144.092 E16.64948
G1 X176.456 Y144.29 E16.67381
G1 X176.798 Y144.582 E16.70747
G1 X178.18 Y145.498 E16.83155
G1 X178.802 Y145.959 E16.88948
G1 X179.374 Y146.481 E16.94743
G1 X179.888 Y147.06 E17.00537
G1 X180.341 Y147.688 E17.06332
G1 X180.652 Y148.218 E17.10931
G1 X180.723 Y148.351 E17.12059
G1 X181.052 Y149.052 E17.17854
G1 X181.307 Y149.783 E17.23648
G1 X181.485 Y150.537 E17.29446
G1 X181.585 Y151.305 E17.35241
G1 X181.607 Y151.883 E17.3957
G1 X181.607 Y158.767 E17.91087
G1 X181.567 Y159.54 E17.96879
G1 X181.448 Y160.305 E18.02673
G1 X181.25 Y161.054 E18.08471
G1 X180.976 Y161.778 E18.14264
G1 X180.629 Y162.471 E18.20064
G1 X180.212 Y163.123 E18.25856
G1 X179.73 Y163.729 E18.3165
G1 X179.456 Y164.024 E18.34663
G1 X179.285 Y164.198 E18.36489
G1 X178.715 Y164.722 E18.42283
G1 X178.093 Y165.183 E18.48077
G1 X177.427 Y165.579 E18.53875
G1 X176.724 Y165.903 E18.59668
G1 X175.992 Y166.154 E18.65459
G1 X175.237 Y166.327 E18.71256
G1 X174.086 Y166.439 E18.7991
G1 X132.939 Y167.264 E21.87897
G1 X132.749 Y167.266 E21.89319
G1 X132.374 Y167.264 E21.92125
G1 X131.929 Y167.248 E21.95457
G1 X131.574 Y167.225 E21.98119
G1 X131.186 Y167.19 E22.01035
G1 X130.802 Y167.145 E22.03928
G1 X130.39 Y167.085 E22.07044
G1 X130.045 Y167.025 E22.09664
G1 X129.635 Y166.942 E22.12795
G1 X129.273 Y166.858 E22.15576
G1 X128.873 Y166.754 E22.18669
G1 X128.512 Y166.649 E22.21482
G1 X128.143 Y166.531 E22.24382
G1 X127.798 Y166.411 E22.27115
G1 X127.379 Y166.251 E22.30472
G1 X127.026 Y166.104 E22.33333
G1 X126.683 Y165.951 E22.36144
G1 X126.364 Y165.799 E22.38788
G1 X125.959 Y165.591 E22.42195
G1 X125.621 Y165.404 E22.45086
G1 X125.315 Y165.225 E22.47739
G1 X125.015 Y165.04 E22.50377
G1 X124.663 Y164.808 E22.53532
G1 X124.346 Y164.587 E22.56424
G1 X123.995 Y164.327 E22.59692
G1 X123.722 Y164.112 E22.62293
G1 X123.386 Y163.832 E22.65566
G1 X123.095 Y163.574 E22.68476
G1 X122.841 Y163.338 E22.71071
G1 X122.583 Y163.087 E22.73765
G1 X122.298 Y162.794 E22.76824
G1 X122.039 Y162.513 E22.79683
G1 X121.741 Y162.169 E22.83089
G1 X121.516 Y161.893 E22.85754
G1 X121.277 Y161.583 E22.88684
G1 X121.056 Y161.281 E22.91484
G1 X120.817 Y160.936 E22.94625
G1 X120.619 Y160.631 E22.97346
G1 X120.408 Y160.285 E23.00379
G1 X120.216 Y159.951 E23.03262
G1 X120.018 Y159.583 E23.06389
G1 X119.853 Y159.255 E23.09137
G1 X119.69 Y158.909 E23.11999
G1 X119.549 Y158.589 E23.14616
G1 X119.371 Y158.15 E23.18161
G1 X119.237 Y157.785 E23.21071
G1 X119.122 Y157.445 E23.23757
G1 X119.015 Y157.104 E23.26431
G1 X118.907 Y156.725 E23.29381
G1 X118.813 Y156.359 E23.32208
G1 X118.714 Y155.92 E23.35576
G1 X118.652 Y155.6 E23.38015
G1 X118.658 Y155.599 E23.38061
G1 X118.578 Y155.165 E23.41364
G1 X118.527 Y154.796 E23.44151
G1 X118.483 Y154.405 E23.47096
G1 X118.452 Y154.041 E23.4983
G1 X118.428 Y153.609 E23.53068
G1 X118.418 Y153.241 E23.55822
G1 X118.418 Y152.842 E23.58808
G1 X118.428 Y152.457 E23.61691
G1 X118.448 Y152.063 E23.64643
G1 X118.477 Y151.695 E23.67405
G1 X118.523 Y151.266 E23.70634
G1 X118.57 Y150.923 E23.73225
G1 X118.645 Y150.512 E23.76352
G1 X118.64 Y150.511 E23.7639
G1 X118.707 Y150.158 E23.79079
G1 X118.795 Y149.753 E23.8218
G1 X118.88 Y149.41 E23.84825
G1 X118.987 Y149.023 E23.87829
G1 X119.1 Y148.653 E23.90724
G1 X119.246 Y148.224 E23.94116
G1 X119.375 Y147.878 E23.96879
G1 X119.528 Y147.497 E23.99952
G1 X119.669 Y147.174 E24.02589
G1 X119.823 Y146.845 E24.05308
G1 X119.989 Y146.51 E24.08106
G1 X120.09 Y146.313 E24.09762
G1 X123.325 Y140.242 E24.61242
G1 X123.42 Y140.069 E24.62719
G1 X123.589 Y139.771 E24.65283
G1 X123.791 Y139.435 E24.68217
G1 X123.994 Y139.117 E24.7104
G1 X124.237 Y138.76 E24.74272
G1 X124.435 Y138.486 E24.76802
G1 X124.646 Y138.209 E24.79408
G1 X124.876 Y137.92 E24.82172
G1 X125.148 Y137.597 E24.85332
G1 X125.38 Y137.337 E24.8794
G1 X125.646 Y137.068 E24.90771
G1 X125.64 Y137.062 E24.90834
G1 X125.897 Y136.801 E24.93575
G1 X126.241 Y136.486 E24.97066
G1 X126.235 Y136.48 E24.97129
G0 F1800 X126.636 Y136.926
G1 F1200 X126.903 Y136.686 E24.99816
G1 X127.161 Y136.466 E25.02353
G1 X127.435 Y136.243 E25.04997
G1 X127.727 Y136.018 E25.07756
G1 X128.018 Y135.806 E25.1045
G1 X128.354 Y135.576 E25.13497
G1 X128.664 Y135.377 E25.16254
G1 X128.957 Y135.199 E25.1882
G1 X129.255 Y135.028 E25.21391
G1 X129.565 Y134.861 E25.24026
G1 X129.886 Y134.698 E25.2672
G1 X130.234 Y134.533 E25.29602
G1 X130.573 Y134.384 E25.32373
G1 X130.918 Y134.243 E25.35163
G1 X131.258 Y134.115 E25.37881
G1 X131.621 Y133.99 E25.40754
G1 X131.968 Y133.881 E25.43476
G1 X132.307 Y133.784 E25.46115
G1 X132.647 Y133.696 E25.48743
G1 X133.008 Y133.613 E25.51515
G1 X133.354 Y133.543 E25.54157
G1 X133.707 Y133.481 E25.56839
G1 X134.07 Y133.427 E25.59586
G1 X134.438 Y133.382 E25.6236
G1 X134.799 Y133.348 E25.65074
G1 X135.161 Y133.324 E25.67789
G1 X135.524 Y133.309 E25.70507
G1 X135.903 Y133.304 E25.73344
G1 X136.269 Y133.309 E25.76083
G1 X136.664 Y133.325 E25.79042
G1 X137.002 Y133.349 E25.81577
G1 X151.158 Y134.663 E26.8797
G1 X151.883 Y134.77 E26.93454
G1 X161.729 Y135.706 E27.67469
G1 X162.464 Y135.816 E27.73031
G1 X163.182 Y136.004 E27.78585
G1 X163.545 Y136.132 E27.81465
G1 X163.759 Y136.214 E27.8318
G1 X164.713 Y136.666 E27.9108
G1 X164.741 Y136.682 E27.91322
G1 X165.33 Y137.059 E27.96555
G1 X174.932 Y143.922 E28.8488
G1 X175.193 Y144.119 E28.87327
G1 X175.447 Y144.314 E28.89723
G1 X175.833 Y144.568 E28.93181
G1 X176.091 Y144.766 E28.95615
G1 X176.445 Y145.069 E28.99102
G1 X177.848 Y145.999 E29.11699
G1 X178.444 Y146.442 E29.17256
G1 X178.989 Y146.946 E29.22811
G1 X179.477 Y147.506 E29.2837
G1 X179.901 Y148.116 E29.33929
G1 X180.123 Y148.501 E29.37255
G1 X180.194 Y148.634 E29.38383
G1 X180.508 Y149.307 E29.43941
G1 X180.748 Y150.01 E29.495
G1 X180.911 Y150.734 E29.55054
G1 X180.995 Y151.472 E29.60612
G1 X181.007 Y151.883 E29.63689
G1 X181.007 Y158.767 E30.15206
G1 X180.967 Y159.509 E30.20767
G1 X180.848 Y160.242 E30.26324
G1 X180.65 Y160.958 E30.31883
G1 X180.377 Y161.648 E30.37436
G1 X180.031 Y162.305 E30.42993
G1 X179.616 Y162.922 E30.48558
G1 X179.028 Y163.603 E30.55291
G1 X178.857 Y163.777 E30.57117
G1 X178.309 Y164.278 E30.62673
G1 X177.71 Y164.717 E30.68231
G1 X177.067 Y165.09 E30.73794
G1 X176.388 Y165.391 E30.79352
G1 X175.681 Y165.617 E30.84906
G1 X174.953 Y165.766 E30.90467
G1 X174.074 Y165.84 E30.97069
G1 X132.927 Y166.665 E34.05055
G1 X132.377 Y166.664 E34.09171
G1 X131.968 Y166.65 E34.12234
G1 X131.613 Y166.627 E34.14896
G1 X131.256 Y166.594 E34.17579
G1 X130.872 Y166.549 E34.20472
G1 X130.493 Y166.494 E34.23338
G1 X130.148 Y166.434 E34.25959
G1 X129.77 Y166.357 E34.28846
G1 X129.408 Y166.273 E34.31627
G1 X129.041 Y166.177 E34.34466
G1 X128.68 Y166.072 E34.37279
G1 X128.34 Y165.964 E34.39949
G1 X127.995 Y165.844 E34.42682
G1 X127.609 Y165.697 E34.45773
G1 X127.256 Y165.55 E34.48635
G1 X126.941 Y165.409 E34.51218
G1 X126.622 Y165.257 E34.53862
G1 X126.25 Y165.066 E34.56992
G1 X125.912 Y164.879 E34.59882
G1 X125.63 Y164.714 E34.62327
G1 X125.33 Y164.529 E34.64965
G1 X125.006 Y164.316 E34.67867
G1 X124.689 Y164.095 E34.70759
G1 X124.366 Y163.856 E34.73765
G1 X124.093 Y163.641 E34.76366
G1 X123.785 Y163.383 E34.79373
G1 X123.494 Y163.125 E34.82283
G1 X123.26 Y162.908 E34.84671
G1 X123.002 Y162.657 E34.87365
G1 X122.739 Y162.387 E34.90186
G1 X122.48 Y162.106 E34.93046
G1 X122.206 Y161.79 E34.96176
G1 X121.981 Y161.514 E34.9884
G1 X121.761 Y161.229 E35.01535
G1 X121.54 Y160.927 E35.04335
G1 X121.321 Y160.609 E35.07225
G1 X121.123 Y160.304 E35.09946
G1 X120.928 Y159.986 E35.12738
G1 X120.736 Y159.652 E35.15621
G1 X120.554 Y159.314 E35.18493
G1 X120.389 Y158.986 E35.21241
G1 X120.239 Y158.667 E35.23879
G1 X120.098 Y158.347 E35.26496
G1 X119.935 Y157.943 E35.29756
G1 X119.801 Y157.578 E35.32666
G1 X119.694 Y157.266 E35.35134
G1 X119.587 Y156.925 E35.37809
G1 X119.488 Y156.575 E35.40531
G1 X119.394 Y156.209 E35.43359
G1 X119.303 Y155.805 E35.46458
G1 X119.241 Y155.485 E35.48897
G1 X119.172 Y155.083 E35.51949
G1 X119.121 Y154.714 E35.54737
G1 X119.081 Y154.355 E35.5744
G1 X119.05 Y153.991 E35.60174
G1 X119.028 Y153.592 E35.63165
G1 X119.018 Y153.224 E35.6592
G1 X119.017 Y152.858 E35.68659
G1 X119.027 Y152.473 E35.71541
G1 X119.046 Y152.11 E35.74261
G1 X119.075 Y151.742 E35.77023
G1 X119.118 Y151.347 E35.79997
G1 X119.165 Y151.004 E35.82588
G1 X119.233 Y150.624 E35.85477
G1 X119.296 Y150.27 E35.88167
G1 X119.378 Y149.897 E35.91025
G1 X119.463 Y149.554 E35.9367
G1 X119.561 Y149.199 E35.96426
G1 X119.674 Y148.829 E35.99321
G1 X119.808 Y148.434 E36.02443
G1 X119.937 Y148.088 E36.05206
G1 X120.078 Y147.737 E36.08037
G1 X120.219 Y147.414 E36.10674
G1 X120.36 Y147.111 E36.13175
G1 X120.526 Y146.776 E36.15973
G1 X120.62 Y146.595 E36.17499
G1 X123.855 Y140.524 E36.68979
G1 X123.942 Y140.365 E36.70336
G1 X124.111 Y140.067 E36.729
G1 X124.297 Y139.758 E36.75599
G1 X124.5 Y139.44 E36.78422
G1 X124.723 Y139.112 E36.8139
G1 X124.921 Y138.838 E36.8392
G1 X125.115 Y138.582 E36.86324
G1 X125.345 Y138.293 E36.89088
G1 X125.596 Y137.996 E36.91998
G1 X125.828 Y137.736 E36.94605
